X:1
T:Coro della notte
T:Coro della notte
T:(The Night Chorus)
T:Pietro Alessandro Yon (1866 - 1943)
C:Pietro Alessandro Yon (1866 - 1943)
%%score [ 1 2 3 4 ]
L:1/8
Q:1/4=50
M:4/4
K:D
V:1 treble nm="Soprano"
V:2 treble nm="Alto"
V:3 treble-8 nm="Tenor"
V:4 bass nm="Bass"
V:1
|:"^Largo" F2 F2 z F GF |[M:3/4] E2 F4 | A2 A2 AA |[M:2/4] (c B2) _B |[M:3/4] A2 A4 | %5
[M:4/4] G2 G2 z F GA |[M:3/4] G2 F2 A2 | c2 A2 BF | A6 |[M:4/4] F2 F2 z F GF |[M:3/4] E2 F4 | %11
 A2 A2 AA |[M:2/4] (c B2) _B |[M:3/4] A2 A4 |[M:4/4] G2 G2 z F GA |[M:3/4] B2 B2 c2 | d2 c=c B_B | %17
 A2 A2 z G | F6 :|[M:4/4] z6 z A, | F2 F2 z F GF |[M:3/4] E2 F4 | A2 A2 AA |[M:2/4] (c B2) _B | %24
[M:3/4] A2 A4 |[M:4/4] GG F2 ^A2 c2 |[M:3/4] d2 B2 z B | A2 z2 z2 | AG F2 E2 | F6 |] %30
V:2
|: D2 D2 z D DD |[M:3/4] C2 D4 | F2 F2 FF |[M:2/4] ^E3 E |[M:3/4] F2 F4 |[M:4/4] E2 E2 z ^D EE | %6
w: Dor- mi, ch'e su te|ve- glia|gi'a tut- to il|Pa- ra-|di- so;|dor- mi, ti splen- de~in|
[M:3/4] =D2 D2 A2 | ^G2 F2 FD | E6 |[M:4/4] D2 D2 z D DD |[M:3/4] C2 D4 | F2 F2 FF |[M:2/4] ^E3 E | %13
w: vi- so un|rag- gio tut- to|d'or.|Dor- mi, dor- mi Fan-|ciul- lo,|ri- po- sa il|cor- po|
[M:3/4] F2 F4 |[M:4/4] E2 E2 z ^D EF |[M:3/4] G2 G2 A2 | A4 G2 | FD E2 z C | D6 :|[M:4/4] z6 z A, | %20
w: san- to;|lie- ve, lie- ve ti|cul- lo col|fre- sco|mi * o re-|spir.|In|
 D2 D2 z D DD |[M:3/4] C2 D4 | F2 F2 FF |[M:2/4] ^E3 E |[M:3/4] F2 F4 |[M:4/4] EE C2 F2 F2 | %26
w: al- to un che- ru-|bi- no|tra- e da- la|ce- tra|d'o- ro|un ac- cor- do di-|
[M:3/4] F2 G2 z G | F2 z2 z2 | E2 D2 C2 | D6 |] %30
w: vi- no per|te,|san- to Pa-|stor.|
V:3
|: A2 A2 z A BA |[M:3/4] A2 A4 | d2 d2 dd |[M:2/4] (d2 c)c |[M:3/4] d2 d4 |[M:4/4] B2 B2 z B Bc | %6
[M:3/4] B2 A2 d2 | c2 c2 dB | c6 |[M:4/4] A2 A2 z A BA |[M:3/4] A2 A4 | d2 d2 dd |[M:2/4] (d2 c)c | %13
[M:3/4] d2 d4 |[M:4/4] B2 B2 z B Bd |[M:3/4] d2 d2 e2 | d4 d2 | (dB) c2 z A | A6 :|[M:4/4] z6 z A | %20
 A2 A2 z A BA |[M:3/4] A2 A4 | d2 d2 dd |[M:2/4] (d2 c)c |[M:3/4] d2 d4 |[M:4/4] BB ^A2 c2 A2 | %26
[M:3/4] B2 d2 z d | (dedcdB) | (cB) A2 A2 | A6 |] %30
V:4
|: d2 d2 z d dd |[M:3/4] A2 d4 | d2 d2 dd |[M:2/4] G3 G |[M:3/4] d2 d4 |[M:4/4] e2 e2 z B eA | %6
[M:3/4] d2 d2 f2 | ^e2 f2 d=e | A6 |[M:4/4] d2 d2 z d dd |[M:3/4] A2 d4 | d2 d2 dd |[M:2/4] G3 G | %13
[M:3/4] d2 d4 |[M:4/4] e2 e2 z B e=d |[M:3/4] g2 g2 g2 | f4 g2 | a2 a2 A2 | d6 :|[M:4/4] z6 z A | %20
 d2 d2 z d dd |[M:3/4] A2 d4 | d2 d2 dd |[M:2/4] G3 G |[M:3/4] d2 d4 |[M:4/4] ee f2 f2 f2 | %26
[M:3/4] (ba) g2 z g | a2 z2 z2 | A2 A2 A2 | d6 |] %30

